icon/lg/svgator.svg

<?xml version="1.0" encoding="UTF-8"?>
<svg viewBox="0 0 512 94" version="1.1" xmlns="http://www.w3.org/2000/svg" xmlns:xlink="http://www.w3.org/1999/xlink" preserveAspectRatio="xMidYMid" height="1em" width="1em">
  <g>
    <path d="M269.290692,21.6368763 C272.792666,21.5876136 276.271674,22.2094652 279.539739,23.4688315 C282.550039,24.6433759 285.209221,26.5695787 287.263658,29.0637217 L287.263658,25.845422 C287.263658,23.7945553 288.926214,22.1319993 290.977081,22.1319993 L298.899049,22.1319993 L298.899049,66.247461 C298.899049,84.5340048 289.557728,93.6772767 270.875086,93.6772767 C266.074336,93.7079863 261.29239,93.0748366 256.665055,91.7958092 C252.628364,90.7491702 248.852156,88.8779243 245.574299,86.2999436 L249.089673,80.4079796 C250.097634,78.7775226 252.193165,78.2267141 253.863621,79.1185893 L254.040903,79.2196843 C255.815696,80.2352432 257.690599,81.0648466 259.635793,81.6952995 C263.037288,82.8274884 266.596977,83.4124138 270.181914,83.4282301 C274.716945,83.82795 279.228967,82.4423683 282.758038,79.5662704 C285.662103,76.3195036 287.111208,72.0258588 286.768535,67.6833178 L286.768535,64.8611165 C284.659385,67.0740719 282.066571,68.7687214 279.193153,69.8123468 C276.031281,71.0097699 272.671298,71.5977669 269.290692,71.5452774 C264.641366,71.6083926 260.048701,70.5197608 255.92237,68.37649 C252.003365,66.341966 248.72866,63.255857 246.465521,59.4642756 C244.110631,55.4989021 242.910238,50.9545558 242.999659,46.3435153 C242.919479,41.7492179 244.119542,37.2232653 246.465521,33.2722674 C248.77527,29.6184192 252.047357,26.6718278 255.92237,24.7561514 C260.05873,22.6453391 264.647296,21.5746738 269.290692,21.6368763 Z M35.2955495,56.4440251 C39.3783141,56.6294127 42.9863847,59.1570183 44.5552854,62.9308606 C46.0817834,66.6027071 45.410407,70.8110338 42.8418057,73.8222762 L42.6233703,74.0704048 L42.5115071,74.1959949 C41.9149029,74.9287094 41.9521907,76.0047593 42.6233703,76.6945569 C45.3957628,79.0310029 48.5256904,80.9040456 51.8919227,82.2427653 L52.5258309,82.4874963 L52.6739651,82.5300997 C53.5650922,82.7477158 54.4870402,82.2867418 54.8476236,81.4432705 L54.9024214,81.299201 L55.0257761,80.9869565 C56.0506809,78.5087212 57.9837939,76.5095359 60.4362188,75.4037153 C62.9908281,74.2518187 65.8988495,74.1640106 68.5183047,75.1596755 C71.4163071,76.3284037 73.6468081,78.7221122 74.6083179,81.6952995 C74.6707835,81.8541239 74.7540292,82.0039661 74.8558794,82.1409102 C48.9114328,95.360695 39.6031199,91.2016616 20.3923464,68.5745392 C17.5764956,65.1633952 15.3659685,61.2949728 13.8567225,57.1371973 C20.8800345,59.3056591 28.4269839,59.0616468 35.2955495,56.4440251 Z M159.918015,21.3893148 C163.517928,21.4014528 167.105162,21.816642 170.612673,22.6271223 C173.709332,23.2784281 176.683701,24.414704 179.425863,25.9939589 L177.098784,30.4500662 C175.856494,32.9477266 172.9401,34.1185416 170.315599,33.1732428 C166.938168,31.9364478 163.366152,31.3159567 159.769479,31.3412876 C156.96787,31.186107 154.173007,31.7484879 151.649461,32.9751936 C150.026987,33.7675292 148.96448,35.3802638 148.876772,37.1837393 C148.815432,39.0814987 150.032438,40.7853078 151.84751,41.3427728 C154.846362,42.4321181 157.948774,43.2118687 161.106311,43.669851 C164.558688,44.1940246 167.967759,44.9718223 171.305845,45.9969292 C173.944827,46.7950543 176.332656,48.2618634 178.237567,50.2549872 C180.280438,52.6234736 181.311668,55.699384 181.109281,58.8206156 C181.180446,63.5546189 178.778465,67.9832708 174.771706,70.5055191 C169.613039,73.6994594 163.600087,75.2372544 157.541425,74.912114 C153.304262,74.8903461 149.089872,74.29067 145.014812,73.1296711 C141.580608,72.2860573 138.315478,70.8627952 135.359913,68.9211254 L137.488942,64.7125796 C138.773322,62.1770182 141.779148,61.0390986 144.420665,62.0884276 C145.696422,62.6262086 147.002464,63.0891097 148.332137,63.4747721 C151.549466,64.4090364 154.884397,64.8759267 158.234597,64.8611165 C165.496402,64.8611165 169.127304,62.9466408 169.127304,59.1176894 C169.175822,57.3647603 168.037215,55.7991761 166.354615,55.3052421 C163.455171,54.3467745 160.470921,53.6670287 157.4424,53.2752377 C153.890385,52.7624457 150.38172,51.9845813 146.945792,50.9481595 C144.286623,50.0917046 141.897215,48.5556567 140.01407,46.4920522 C137.915864,44.052168 136.850324,40.8910658 137.043332,37.6788624 C136.945457,32.935188 139.280318,28.4709339 143.232369,25.845422 C148.189213,22.646762 154.026424,21.0878628 159.918015,21.3893148 Z M389.754125,10.6451451 C391.738834,10.6451451 393.359882,12.2021694 393.4624,14.1613518 L393.467547,14.3585678 L393.467547,22.4785854 L407.330992,22.4785854 L407.330992,32.381046 L393.467547,32.381046 L393.467547,57.1371973 C393.314006,59.2398005 393.989307,61.3190162 395.349015,62.9301367 C396.753058,64.3134968 398.679632,65.0337112 400.646831,64.9106288 C401.421092,64.97728 402.199648,64.97728 402.973909,64.9106288 C405.758783,64.3127285 408.572623,65.7926001 409.65807,68.4260023 L411.044415,71.2977159 C409.494268,72.5243812 407.707531,73.41775 405.796111,73.9218679 C403.6862,74.5198954 401.503014,74.8198752 399.309999,74.8130894 C394.465295,75.1236532 389.694643,73.5037677 386.040702,70.3074698 C382.708024,66.8034887 381.001199,62.0603113 381.337033,57.2362219 L381.337033,10.6451451 L389.754125,10.6451451 Z M336.775961,21.6863886 C339.946254,21.6484248 343.092798,22.2373501 346.034761,23.4193192 C348.827032,24.50909 351.345585,26.199394 353.412094,28.3705495 L353.412094,25.9939589 C353.412094,24.0092492 354.969119,22.388202 356.928301,22.2856835 L357.125517,22.2805362 L365.641633,22.1319993 L365.641633,74.2684541 L354.105267,74.2684541 L354.105267,67.386244 C352.130815,69.8251071 349.577732,71.7314095 346.678421,72.9316219 C343.534466,74.2022662 340.166414,74.8253557 336.775961,74.7635771 C332.044113,74.8401181 327.372182,73.6977116 323.20959,71.4462528 C319.309082,69.2986804 316.098362,66.0879597 313.950789,62.1874522 C309.479378,53.398665 309.479378,43.0017884 313.950789,34.2130012 C316.101654,30.2307895 319.349263,26.9488136 323.308614,24.7561514 C327.466892,22.6131999 332.099764,21.5571776 336.775961,21.6863886 Z M456.793782,24.9542006 C460.918063,27.1127867 464.350179,30.3904574 466.696243,34.4110504 C471.418814,42.9621141 471.418814,53.3393147 466.696243,61.8903784 C464.350179,65.9109714 460.918063,69.1886421 456.793782,71.3472282 C447.830293,75.8906811 437.238186,75.8906811 428.274696,71.3472282 C424.150416,69.1886421 420.7183,65.9109714 418.372236,61.8903784 C413.649665,53.3393147 413.649665,42.9621141 418.372236,34.4110504 C420.7183,30.3904574 424.150416,27.1127867 428.274696,24.9542006 C437.238186,20.4107476 447.830293,20.4107476 456.793782,24.9542006 Z M112.386205,17.1312567 C120.209149,26.340545 105.702044,59.1176894 87.2339551,74.2684541 C84.2748616,70.8294286 83.8468127,65.8832968 86.1710947,61.9870366 C88.443726,58.17736 92.849682,56.2062903 97.1873811,57.0273648 L97.4830017,57.087685 L97.6458701,57.1139473 C98.0813297,57.1641753 98.5225353,57.0566446 98.8877191,56.8076557 C99.2985509,56.5275431 99.5778705,56.0924635 99.6615431,55.6023159 C100.185128,52.2651752 100.217852,48.8706249 99.7597152,45.526308 L99.6615431,44.8581463 L99.6160725,44.7122242 C99.2937797,43.8076554 98.3310625,43.2823266 97.3839771,43.5213141 C92.9190221,44.342377 88.4296668,42.2139286 86.2392556,38.2374897 C84.0986264,34.3514245 84.6231423,29.5527568 87.522918,26.2237973 L87.7290781,25.9939589 L87.8409414,25.8683689 C88.4375455,25.1356544 88.4002578,24.0596045 87.7290781,23.3698069 C84.9572186,21.0326062 81.8271941,19.159444 78.4605971,17.8214521 L77.8266176,17.5768675 L77.6784833,17.5342641 C76.7378492,17.3045582 75.7628744,17.8309358 75.450027,18.7651627 C74.914229,20.2978924 74.0333435,21.6869811 72.8753873,22.8251715 C70.4484362,25.2006093 67.0222095,26.255116 63.6795836,25.6554096 C60.3369577,25.0557032 57.4910054,22.8758937 56.0412044,19.8049211 C55.5179983,16.4643136 54.4825668,13.2244151 52.9714416,10.1995344 C60.4973116,8.76367758 104.3157,7.2287962 112.386205,17.1312567 Z M233.493297,22.1317176 L241.167704,22.1815116 L220.966685,69.3172238 C219.755803,72.2069706 216.986636,74.126562 213.873297,74.2611581 L213.589352,74.2684541 L207.053728,74.2684541 L226.858649,28.1229879 L227.848895,25.7959097 C228.823511,23.5516289 231.046642,22.108544 233.493297,22.1317176 Z M512,21.5378517 L512,33.0742182 C511.070332,32.8890896 510.125638,32.7896482 509.177799,32.7771444 C505.088258,32.5664602 501.093156,34.0534267 498.136555,36.8866655 C495.274155,40.1771797 493.832092,44.4677629 494.126059,48.8191305 L494.126059,74.2684541 L481.946032,74.2684541 L481.946032,22.1319993 L489.818488,22.1319993 C491.803198,22.1319993 493.424245,23.6890236 493.526764,25.648206 L493.531911,25.845422 L493.531911,29.7073816 C497.787506,23.8818235 504.826827,20.7679146 512,21.5378517 Z M192.497111,22.0824644 C194.88532,22.0760083 197.048561,23.4648825 198.042863,25.6197934 L198.141513,25.845422 L210.173003,53.4732869 L204.132502,67.4852686 L183.931482,22.0824644 L192.497111,22.0824644 Z M327.170574,36.3420302 C321.38525,43.132867 321.38525,53.1190495 327.170574,59.9098863 C330.060071,62.8880809 334.063621,64.5218165 338.211818,64.4155058 C342.369622,64.5487133 346.39275,62.9322777 349.302573,59.9593986 L349.302573,59.9098863 C355.150807,53.1423394 355.150807,43.109577 349.302573,36.3420302 C343.137248,30.3616016 333.3359,30.3616016 327.170574,36.3420302 Z M431.443483,36.1934933 C425.658159,42.9843301 425.658159,52.9705126 431.443483,59.7613494 C434.332981,62.739544 438.33653,64.3732795 442.484727,64.2669689 C446.635109,64.4131283 450.657144,62.8150878 453.575483,59.860374 L453.575483,59.7613494 C459.423716,52.9938025 459.423716,42.9610401 453.575483,36.1934933 C447.410157,30.2130647 437.608809,30.2130647 431.443483,36.1934933 Z M259.536769,35.9459318 C256.606486,38.6755741 254.999732,42.5390044 255.130174,46.5415645 C254.975984,50.5917205 256.583112,54.5102249 259.536769,57.2857342 C266.131548,62.7884317 275.717648,62.7884317 282.312428,57.2857342 C285.284338,54.5191402 286.910024,50.5994301 286.768535,46.5415645 C286.886301,42.531283 285.260984,38.6666386 282.312428,35.9459318 C275.696327,30.5023831 266.152869,30.5023831 259.536769,35.9459318 Z M65.1514681,40.1049652 C70.6751358,40.1049652 75.1529532,44.5827826 75.1529532,50.1064503 C75.1529532,55.6301181 70.6751358,60.1079355 65.1514681,60.1079355 C59.6278004,60.1079355 55.1499829,55.6301181 55.1499829,50.1064503 C55.1499829,44.5827826 59.6278004,40.1049652 65.1514681,40.1049652 Z M25.3435767,0 C27.1828619,0.051831274 28.6592898,1.50969526 28.7549924,3.32622061 L28.7599256,3.51537349 L28.7599256,8.12001764 C28.7465484,9.30577438 29.331392,10.4129273 30.305667,11.071621 L30.4928562,11.1897804 L32.2752991,12.2295388 C33.2989794,12.8205609 34.5462323,12.8553269 35.5962153,12.3338368 L35.7906726,12.2295388 L39.7021445,9.90246054 L39.8958215,9.79104248 C40.6820625,9.37139507 41.6015063,9.26480365 42.4672841,9.49856367 C43.333062,9.73232369 44.0739111,10.2871942 44.5420948,11.0455363 L44.6533748,11.2392927 L46.5843546,14.4080801 L46.696719,14.6003588 C47.1204058,15.3811155 47.2340514,16.2964413 47.0091385,17.1614906 C46.7842257,18.02654 46.2391409,18.7705959 45.4888233,19.2461114 L45.2970347,19.3593104 L41.4350751,21.6863886 C40.4129368,22.2875802 39.7671806,23.3603469 39.7065957,24.5348334 L39.7021445,24.7561514 L39.7021445,26.6376189 C39.6790355,27.8138797 40.2454466,28.9184177 41.201738,29.5871836 L41.3855628,29.7073816 L45.2475224,32.0344599 L45.2970347,31.9849475 C46.1295071,32.4675151 46.7277833,33.2702268 46.9523412,34.2058846 C47.1596254,35.0695687 47.0317479,35.9768363 46.5996692,36.7466837 L46.48533,36.9361778 L44.6533748,40.1049652 L44.5401758,40.2967538 C44.0646603,41.0470714 43.3206044,41.5921562 42.455555,41.817069 C41.5905057,42.0419819 40.6751799,41.9283363 39.8944232,41.5046495 L39.7021445,41.3922851 L35.8896972,39.0156945 C34.8660169,38.4246724 33.618764,38.3899064 32.568781,38.9113965 L32.3743237,39.0156945 L30.5918808,40.0554529 C29.5697425,40.6566445 28.9239863,41.7294112 28.8634014,42.9038977 L28.8589502,43.1252157 L28.8589502,47.2347368 L28.8537486,47.4276155 C28.7570688,49.2155463 27.3243862,50.6482289 25.5364554,50.7449087 L25.3435767,50.7501103 L21.7291786,50.7501103 C19.8524077,50.7501103 18.3191393,49.2794009 18.2190067,47.4276155 L18.2138051,47.2347368 L18.2138051,43.2242403 C18.2271823,42.0384835 17.6423387,40.9313306 16.6680637,40.2726369 L16.4808745,40.1544775 L14.6984316,39.1147191 C13.6747513,38.523697 12.4274984,38.488931 11.3775154,39.0104211 L11.1830581,39.1147191 L7.32109852,41.4417974 L7.12881983,41.5541618 C6.34806312,41.9778486 5.43273734,42.0914942 4.56768797,41.8665813 C3.7026386,41.6416685 2.95858271,41.0965837 2.48306716,40.3462661 L2.36986825,40.1544775 L0.537913045,36.9856901 L0.425548648,36.7934114 C0.00186182044,36.0126547 -0.111783744,35.0973289 0.113129094,34.2322796 C0.338041931,33.3672302 0.883126726,32.6231699 1.63344434,32.1476577 L1.82523292,32.0344599 L5.68719253,29.7073816 C6.68077096,29.1231119 7.32076502,28.0918032 7.40991155,26.9516209 L7.42012312,26.7366435 L7.42012312,24.7561514 C7.42669406,23.5964232 6.86130799,22.5131413 5.91796372,21.8543623 L5.73670483,21.7359009 L1.87474522,19.4088227 L1.68295665,19.2956237 C0.932639029,18.8201082 0.387554234,18.0760523 0.162641396,17.2110029 C-0.0622714409,16.3459536 0.0513741231,15.4306278 0.475060951,14.6498711 L0.587425348,14.4575924 L2.27084364,11.1897804 L2.38404255,10.9979918 C2.85955811,10.2476742 3.60361399,9.70258943 4.46866336,9.47767659 C5.33371274,9.25276375 6.24903851,9.36640932 7.02979523,9.79009614 L7.22207391,9.90246054 L11.1335458,12.5761249 C12.1572261,13.167147 13.404479,13.201913 14.454462,12.6804229 L14.6489193,12.5761249 L16.4313622,11.5363665 C17.4535005,10.935175 18.0992567,9.86240823 18.1598416,8.68792172 L18.1642928,8.46660376 L18.1642928,3.51537349 C18.1642928,1.63860256 19.6350021,0.1053342 21.4867876,0.0052016105 L21.6796663,0 L25.3435767,0 Z M18.1579918,20.2795214 C16.0237187,22.428023 15.3963524,25.6518248 16.5691671,28.4439005 C17.7064419,31.1513679 20.3185924,32.9342352 23.2371452,33.0215145 L23.5116215,33.0247059 L23.4621092,32.9751936 L23.7077534,32.9712385 C27.6226171,32.8449103 30.7805422,29.7078986 30.9328797,25.7939607 L30.9384669,25.5483482 L30.9334575,25.2738991 C30.8268448,22.3559907 29.0265981,19.7557441 26.3116339,18.636484 C23.5118271,17.482247 20.292265,18.1310198 18.1579918,20.2795214 Z" fill="#000000"/>
  </g>
</svg>

<svg width="512" height="94" xmlns="http://www.w3.org/2000/svg" preserveAspectRatio="xMidYMid"><path d="M269.29 21.637a27.43 27.43 0 0 1 10.25 1.832c3.01 1.174 5.67 3.1 7.724 5.595v-3.219a3.713 3.713 0 0 1 3.713-3.713h7.922v44.115c0 18.287-9.341 27.43-28.024 27.43-4.8.031-9.583-.602-14.21-1.881a30.203 30.203 0 0 1-11.09-5.496l3.515-5.892a3.615 3.615 0 0 1 4.774-1.29l.177.102a29.707 29.707 0 0 0 5.595 2.475 33.866 33.866 0 0 0 10.546 1.733c4.535.4 9.047-.986 12.576-3.862a15.943 15.943 0 0 0 4.01-11.883v-2.822a19.805 19.805 0 0 1-7.575 4.951 26.786 26.786 0 0 1-9.902 1.733 28.173 28.173 0 0 1-13.369-3.169 23.766 23.766 0 0 1-9.456-8.912A24.756 24.756 0 0 1 243 46.344a24.756 24.756 0 0 1 3.466-13.072 23.518 23.518 0 0 1 9.456-8.516 28.569 28.569 0 0 1 13.369-3.12ZM35.297 56.444a10.546 10.546 0 0 1 7.546 17.378l-.219.248-.111.126a1.882 1.882 0 0 0 .111 2.499 33.718 33.718 0 0 0 9.269 5.548l.634.244.148.043a1.882 1.882 0 0 0 2.174-1.087l.054-.144.124-.312a10.546 10.546 0 0 1 13.492-5.827 10.546 10.546 0 0 1 6.09 6.535c.063.16.146.309.248.446C48.91 95.36 39.603 91.2 20.392 68.575a38.719 38.719 0 0 1-6.535-11.438 32.926 32.926 0 0 0 21.439-.693Zm124.622-35.055c3.6.012 7.187.428 10.695 1.238a30.054 30.054 0 0 1 8.813 3.367l-2.327 4.456a5.496 5.496 0 0 1-6.783 2.723 30.054 30.054 0 0 0-10.547-1.832 16.488 16.488 0 0 0-8.12 1.634 4.951 4.951 0 0 0-2.772 4.209 4.209 4.209 0 0 0 2.97 4.159 46.79 46.79 0 0 0 9.26 2.327 71.1 71.1 0 0 1 10.199 2.327 15.992 15.992 0 0 1 6.932 4.258 11.932 11.932 0 0 1 2.871 8.566 13.566 13.566 0 0 1-6.337 11.685 29.707 29.707 0 0 1-17.23 4.406 46.591 46.591 0 0 1-12.527-1.782 31.094 31.094 0 0 1-9.655-4.209l2.129-4.208a5.496 5.496 0 0 1 6.932-2.625 35.6 35.6 0 0 0 3.911 1.387 34.956 34.956 0 0 0 9.903 1.386c7.261 0 10.892-1.914 10.892-5.743a3.862 3.862 0 0 0-2.772-3.813 48.027 48.027 0 0 0-8.913-2.03 71.941 71.941 0 0 1-10.496-2.327 16.042 16.042 0 0 1-6.932-4.456 12.378 12.378 0 0 1-2.97-8.813 13.863 13.863 0 0 1 6.188-11.834 28.123 28.123 0 0 1 16.686-4.456Zm229.836-10.744a3.714 3.714 0 0 1 3.708 3.516l.006.198v8.12h13.863v9.902h-13.863v24.756a8.07 8.07 0 0 0 1.881 5.793 6.932 6.932 0 0 0 5.298 1.98c.774.067 1.553.067 2.327 0a5.892 5.892 0 0 1 6.684 3.516l1.386 2.872a14.359 14.359 0 0 1-5.248 2.624c-2.11.598-4.293.898-6.486.891a18.37 18.37 0 0 1-13.27-4.506 17.23 17.23 0 0 1-4.703-13.07V10.644h8.417Zm-52.978 11.041c3.17-.038 6.317.551 9.259 1.733a20.449 20.449 0 0 1 7.377 4.952v-2.377a3.714 3.714 0 0 1 3.516-3.708l.198-.005 8.516-.149v52.136h-11.537v-6.882a18.815 18.815 0 0 1-7.427 5.546 25.202 25.202 0 0 1-9.902 1.832 27.578 27.578 0 0 1-13.566-3.318 23.518 23.518 0 0 1-9.26-9.259 30.846 30.846 0 0 1 0-27.974 23.667 23.667 0 0 1 9.359-9.457 27.727 27.727 0 0 1 13.467-3.07Zm120.018 3.268a24.756 24.756 0 0 1 9.902 9.457 28.42 28.42 0 0 1 0 27.48 24.756 24.756 0 0 1-9.902 9.456 31.54 31.54 0 0 1-28.52 0 24.756 24.756 0 0 1-9.902-9.457 28.42 28.42 0 0 1 0-27.479 24.756 24.756 0 0 1 9.903-9.457 31.54 31.54 0 0 1 28.519 0Zm-344.408-7.823c7.823 9.21-6.684 41.987-25.152 57.137a10.546 10.546 0 0 1 9.953-17.24l.296.06.163.026a1.832 1.832 0 0 0 2.016-1.512c.523-3.337.556-6.731.098-10.076l-.098-.668-.046-.146a1.882 1.882 0 0 0-2.232-1.19 10.546 10.546 0 0 1-9.861-17.298l.206-.23.112-.126a1.882 1.882 0 0 0-.112-2.498 33.668 33.668 0 0 0-9.268-5.549l-.634-.244-.149-.043a1.882 1.882 0 0 0-2.228 1.231 10.497 10.497 0 0 1-19.409 1.04 32.876 32.876 0 0 0-3.07-9.605c7.526-1.436 51.345-2.971 59.415 6.931Zm121.107 5 7.675.05-20.201 47.136a8.07 8.07 0 0 1-7.094 4.944l-.284.007h-6.535l19.805-46.145.99-2.327a6.09 6.09 0 0 1 5.644-3.664ZM512 21.539v11.536a15.497 15.497 0 0 0-2.822-.297 14.854 14.854 0 0 0-11.041 4.11 16.488 16.488 0 0 0-4.01 11.932v25.45h-12.181V22.131h7.872a3.714 3.714 0 0 1 3.709 3.516l.005.197v3.862A20.201 20.201 0 0 1 512 21.537Zm-319.503.544a6.09 6.09 0 0 1 5.546 3.538l.099.225 12.031 27.628-6.04 14.012-20.202-45.403h8.566Zm134.674 14.26a18.171 18.171 0 0 0 0 23.568 14.854 14.854 0 0 0 11.04 4.506 14.854 14.854 0 0 0 11.092-4.457v-.05c5.848-6.767 5.848-16.8 0-23.567-6.166-5.98-15.967-5.98-22.132 0Zm104.272-.149a18.171 18.171 0 0 0 0 23.568 14.854 14.854 0 0 0 11.042 4.506 14.854 14.854 0 0 0 11.09-4.407v-.099c5.849-6.767 5.849-16.8 0-23.568-6.165-5.98-15.966-5.98-22.132 0Zm-171.906-.247a13.863 13.863 0 0 0-4.407 10.596 14.012 14.012 0 0 0 4.407 10.744 17.775 17.775 0 0 0 22.775 0 14.012 14.012 0 0 0 4.457-10.744 13.863 13.863 0 0 0-4.457-10.596 17.923 17.923 0 0 0-22.775 0ZM65.15 40.105c5.524 0 10.002 4.478 10.002 10.001 0 5.524-4.478 10.002-10.002 10.002-5.523 0-10.001-4.478-10.001-10.002 0-5.523 4.478-10.001 10.001-10.001ZM25.344 0a3.516 3.516 0 0 1 3.411 3.326l.005.19V8.12a3.515 3.515 0 0 0 1.546 2.952l.187.118 1.782 1.04a3.515 3.515 0 0 0 3.321.104l.195-.104 3.911-2.328.194-.111a3.515 3.515 0 0 1 4.646 1.255l.111.193 1.931 3.17.113.191a3.515 3.515 0 0 1-1.208 4.646l-.192.113-3.862 2.327a3.515 3.515 0 0 0-1.728 2.849l-.005.221v1.882a3.515 3.515 0 0 0 1.5 2.95l.184.12 3.862 2.326.049-.05a3.515 3.515 0 0 1 1.303 4.763l-.115.19-1.832 3.168-.113.192a3.515 3.515 0 0 1-4.646 1.208l-.192-.113-3.812-2.376a3.515 3.515 0 0 0-3.321-.105l-.195.105-1.782 1.04a3.515 3.515 0 0 0-1.729 2.848l-.004.221v4.11l-.005.193a3.516 3.516 0 0 1-3.318 3.317l-.192.005h-3.615a3.516 3.516 0 0 1-3.51-3.322l-.005-.193v-4.01a3.515 3.515 0 0 0-1.546-2.952l-.187-.119-1.783-1.04a3.515 3.515 0 0 0-3.32-.104l-.195.105-3.862 2.327-.192.112a3.515 3.515 0 0 1-4.646-1.208l-.113-.192-1.832-3.168-.112-.193a3.515 3.515 0 0 1 1.207-4.645l.192-.114 3.862-2.327a3.515 3.515 0 0 0 1.723-2.755l.01-.215v-1.98a3.515 3.515 0 0 0-1.502-2.903l-.181-.118-3.862-2.327-.192-.113A3.515 3.515 0 0 1 .475 14.65l.112-.192 1.684-3.268.113-.192A3.515 3.515 0 0 1 7.03 9.79l.192.112 3.912 2.674a3.515 3.515 0 0 0 3.32.104l.195-.104 1.782-1.04a3.515 3.515 0 0 0 1.729-2.848l.004-.221V3.515c0-1.876 1.471-3.41 3.323-3.51L21.68 0h3.664Zm-7.186 20.28a7.476 7.476 0 0 0 5.08 12.742l.274.003-.05-.05.246-.004a7.477 7.477 0 0 0 7.225-7.177l.005-.246-.005-.274a7.476 7.476 0 0 0-12.775-4.994Z"/></svg>
